X:1
T:O come hither - Greene
T:James Gibb editions
T:#
%%score [ 1 2 3 ] { ( 4 5 ) | 6 }
L:1/8
Q:1/4=100
M:3/4
K:F
V:1 treble nm="Alto" snm="A"
V:2 treble-8 nm="Tenor" snm="T"
V:3 bass nm="Bass" snm="B"
V:4 treble nm="Keyboard"
V:5 treble 
V:6 bass 
V:1
"^Psalm 66, vv 14 & 17""^Arranged for ATB by James Gibb" z6 | z6 |"^O Come Hither" z6 | z6 | %4
w: ||||
 z2 F3 F | G2 C2 z c | (A>G) F2 B2 | B3 B"^Maurice Greene \n(1695-1755)" A2 | G4 z2 | z6 | z6 | %11
w: O come|hi- ther and|hear\- * ken all|ye that fear|God,|||
 z2 z2 F2- | F2 E4 | F2 C2 z2 | z2 z2 F2 | F3 F E2 | D3 D G2 | ^F2 z A =Bc | d2 c=B AG | c2 c3 c | %20
w: O|* come|hi- ther|all|ye that fear|God, that fear|God, and I will|tell you what he hath|done for my|
 =B2 z2 z2 | z2 z2 c2- | c2 =B4 | c2 z2 z2 | z6 | z2 c3 B | (A>G) F2 z2 | z2 B3 B | (A>G) F2 z2 | %29
w: soul,|for|* my|soul.||God hath|heard * me,|God hath|heard * me|
 z2 z2 BB | B2 AA d2- | d3 d ^c2 | d2 (ABcA) | (B2 A2) z2 | z2 B3 A | (A2 G2) z2 | z2 F3 F | %37
w: and con-|si- dered the voice|* of my|prayer, my * * *|prayer, *|of my|prayer, *|O come|
 G2 C2 z c | (A>G) F2 B2 | B3 B A2 | G4 z2 | z6 | z6 | z2 d3 d | (^c>=B) A2 z2 | z2 z2 DD | %46
w: hi- ther and|hear\- * ken all|ye that fear|God|||God hath|heard * me|and con-|
 D2 CC F2- | F3 F E2 | F4 F2 | (E3 F) (GE) | (F2 E2) z2 | z2 c3 B | (A>G) F2 cc | c2 BB B2- | %54
w: si- dered the voice|* of my|prayer, my|prayer, * my *|prayer. *|God hath|heard * me and con-|si- dered the voice,|
 B3 B A2- | (AB) (A2 G>)G | (FGAB) (cA) | (d2 c2) z2 | z2 z2 B2 | B2 (AB) (cA) | F3 F B2- | %61
w: * the voice|* * of * my|prayer, * * * my *|prayer, *|the|voice of * my *|prayer, the voice,|
[Q:1/4=66] !fermata!B4[Q:1/4=90] A2 | B2 (A2 G/4A/4{G)}xG/ | F4 z2 | z6 | z6 |] %66
w: * the|voice of * * my|prayer.|||
V:2
 z6 | z6 | z6 | z6 | z6 | z6 | z6 | z6 | z2 z G AB | c2 BA GF | B2 B3 B | A2 F3 F | G2 C2 z c | %13
w: ||||||||and I will|tell you what he hath|done for my|soul, O come|hi- ther and|
 (A>G) F2 B2 | B3 B A2 | G4 c2 | c3 c =B2 | A2 z2 z2 | z2 z2 G2- | G2 ^F4 | G2 z D EF | G2 FE DC | %22
w: hear\- * ken all|ye that fear|God, all|ye that fear|God|for|* my|soul and I will|tell you what he hath|
 F2 F3 F | E2 z2 z2 | z6 | z6 | z2 F3 F | (E>D) C2 z2 | z2 z2 _E E | _E2 DD G2- | G3 G ^F2 | %31
w: done for my|soul.|||God hath|heard * me|and con-|si- dered the voice|* of my|
 G4 G2 | (^F3 G) (AF) | (G2 ^F2) z2 | z2 G3 F | (F2 E2) z2 | C4 F2- | F2 (E>D) C2 | z2 A4 | %39
w: prayer, my|prayer, * my *|prayer, *|of my|prayer, *|O come|* hi\- * ther|all|
 G2 E2 F2 | E2 z G AB | c2 BA GF | B2 B3 B | A2 z2 z2 | z2 A3 G | (F>E) D2 z2 | z2 z2 AA | %47
w: ye that fear|God and I will|tell you what he hath|done for my|soul.|God hath|heard * me|and con-|
 A2 GG c2- | c3 c =B2 | c2 (G A B G) | (A2 G2) z2 | z2 A3 G | (F>G) (AG) F_E | D3 D D2 | G3 G F2- | %55
w: si- dered the voice|* of my|prayer, my * * *|prayer. *|God hath|heard * me * and con\-|si- dered the|voice, the voice|
 (FG) (F2 E>)E | (F3 G) (AF) | (B2 A2) F2 | F2 (EF) (GE) | C4 F2 | (D2 C2) D2 | !fermata!E4 F2 | %62
w: * * of * my|prayer, * my *|prayer, * the|voice of * my *|prayer, the|voice, * the|voice, the|
 G2 (F2 E/4F/4{E)}xE/ | F4 z2 | z6 | z6 |] %66
w: voice of * * my|prayer.|||
V:3
 z6 | z6 | z6 | z6 | z6 | z6 | z6 | z2 C,2 F,2 | C,3 C, B,,2 | A,,3 A,, D,2 | G,,2 C,3 C, | %11
w: |||||||O come|hi- ther, all|ye that fear|God, hear- ken|
 F,,2 A,,2 F,,2 | B,,2 C,4 | F,3 E, D,2 | E,2 F,4 | C,6 | G,,6 | z6 | z6 | z6 | G,2 G,2 F,2 | %21
w: ye that fear|God, O|hear- ken ye,|ye that|fear|God.||||what he hath|
 E,3 E, A,,2 | D,4 G,,2 | C,2 C,3 C, | D,2 G,,2 z G, | (E,>D,) (C,D,) E,C, | F,3 G, (A,F,) | %27
w: done for my|soul, my|soul. God hath|heard me, hath|heard * me * and con-|si- dered my *|
 (C,3 D,) E,C, | F,,3 G,, A,, F,, | B,,3 A,, (B,,G,,) | D,4 D,2 | _E,6 | D,6- | D,2 D,3 C, | %34
w: prayer, * God hath|heard me and con-|si- dered the *|voice of|my|prayer,|~ O come|
 (B,,>A,,) (G,,A,,) (B,,G,,) | C,2 C,3 B,, | (A,,>G,,) (F,,G,,) (A,,F,,) | B,,2 C,2 z2 | z6 | %39
w: hi\- * ther * and *|hear- ken, come|hi\- * ther * and *|hear- ken,||
 z4 F,2 | C,2 C,2 B,,2 | A,,4 z2 | z6 | z6 | A,,3 (=B,, ^C, A,,) | D,3 E, F,D, | A,,3 G,, A,,F,, | %47
w: all|ye that fear|God.|||God hath * *|heard me and con-|si- der- ed the|
 C,4 C,2 | D,6 | C,6- | C,2 C,3 B,, | (A,,>G,,) F,,2 z2 | z6 | B,3 A, G,F, | E,2 C,2 D,2 | %55
w: voice of|my|prayer.|* God hath|heard * me,||God hath heard the|voice, the voice|
 B,,2 C,4 | F,6- | F,3 G, A,F, | G,4 C,2 | (F,,3 G,, A,, F,,) | B,,2 A,,2 G,,2 | %61
w: of my|prayer,|* hath heard the|voice, the|voice * * *|* of my|
 !fermata!C,4 (D,2 | B,,2 C,4) | F,,4 z2 | z6 | z6 |] %66
w: prayer, of|* my|prayer.|||
V:4
 x6 | f2 e2 z [EG] | c6- | c2 B4 | [cfa]2 f>e [Fcf]2 | [Fd]2 [Ec]2 z [B,E] | [A,CF]4 [B,F]2 | %7
 G>F E2 [A,CF]2 | [G,CE]>G x4 | c2 d c B A | [B,G]6 | [CFA]3 c BA | G6 | [FA]4 [B,F]2 | G2 F4 | %15
 [CF]4 E2 | D4- DE | ^F>E F2 D2 | D4 [=B,E]2 | G2 ^F4 | [=B,DG]2 z2 [DG=B]2 | [CGc]4 [CE]2 | F6 | %23
 [CE]2 [EG]3 x | c2 =B2 x2 | g3/2 f/ e f g e | [Acf]4 [CF]2 | [G,CE]4 [B,CG]2 | [A,CF]4 [Fc]2 | %29
 [FB]4 [DG]2 | [DG]4 ^F2 | G6 | ([A,D^F]4 [CFA]2) | [B,G]2 ^FG AF | [DG]2 B A G F | [A,F]2 EF GE | %36
 c>B A G [CF]2 | [DF]2 [CE]4 | [A,CF]2 z2 [A,B,F]2 | G>F E2 [A,CF]2 | [G,CE]>G AB [EGc]2 | %41
 c2 d c B A | [B,G]6 | [A,CF]2 AG AF | E6 | [F,A,D]>E FG [DA]2 | [EA]4 F2 | [CF]4 E2 | F>E F4 | %49
 [G,CE]4 [B,EG]2 | ([A,CF]2 [G,CE])[DF] [EG]2 | c>B A3 G | [DF]4 [Fcf]2 | [Fd]4 [B,D]2 | %54
 G>F E2 [DF]2- | [DF]2 [A,F]2 [G,E]2 | [A,CF]4 [CFA]2 | [DFB]2 AG F2 | F4 E2 | [CF]4 c2 | %60
 d2 c2 [FB]2 | !fermata![EB]4 [FA]2 | [FGd]2 c4 | [CFA]2 F3 F | GB c>d [Ge]2 | [Acf]6 |] %66
V:5
 z2 [Ac]3 [Af] | B>A G2 x2 | F3/2 G/ A G F E | D3 E FG | x6 | G4 x2 | x6 | [B,C]4 x2 | %8
 x2 AB [EGc]2 | F6 | F2 E4 | x6 | F2 E4 | x6 | [B,C]4 A,2 | x6 | C4 =B,2 | x4 x2 | x6 | C6 | x6 | %21
 x6 | C2 =B,4 | x2 x2 x [Ec] | F>E D2 z G- | G6 | x6 | x6 | x4 _E2- | E2 D2 x2 | B,2 A,4 | D4 ^C2 | %32
 x6 | D4 x2 | x6 | x6 | x6 | G,6 | x6 | [G,C]4 x2 | x6 | F6 | F2 E4 | x6 | ^C>=B, A,3 G, | x6 | %46
 D2 C4 | A,2 G,4 | C4 =B,2 | x6 | x6 | F4- F E | x6 | c2 B2 x2 | [B,C]4 A,2- | A,B, C4 | x6 | %57
 x2 C4 | B,3 A, G,2 | B,2 A,G, F,2- | F,4 x2 | x6 | x2 [FA]2 [EG]2 | x3 B, C2 | [DF]2 C4 | x6 |] %66
V:6
 z2 F,3 F, | G,2 C,2 z C | A,>G, F,G, A,F, | B,,3 C, D,E, | F,2 D,2 A,,2 | B,,2 C,4 | F,3 E, D,2 | %7
 E,2 C,2 F,2 | C,2 C,2 B,,2 | A,,4 D,2 | G,,2 C,2 C,,2 | F,,2 A,,2 F,,2 | B,,2 C,4 | F,3 E, D,2 | %14
 E,2 F,4 | [C,G,]6 | G,,6 | [D,A,D]4 [C,^F,A,]2 | [=B,,G,]4 [E,G,]2 | A,,2 D,4 | G,4 F,2 | %21
 E,4 A,2 | D,2 G,2 G,,2 | [C,G,]2 C,3 C, | D,2 G,,2 z G, | E,>D, C,D, E,C, | F,,3 G,, A,,F,, | %27
 C,3 D, E,C, | F,,3 G,, A,,F,, | B,,3 A,, B,, G,, | D,4 D,2 | _E,6 | D,6- | D,2 D,3 C, | %34
 B,,>A,, G,, A,, B,, G,, | C,2 C,3 B,, | A,,>G,, F,, G,, A,, F,, | B,,2 C,4 | F,3 E, D,2 | %39
 E,2 C,2 F,2 | C,2 C,2 B,,2 | A,,4 D,2 | G,,2 C,4 | F,3 E, F,D, | A,,3 =B,, ^C,A,, | D,3 E, F,D, | %46
 A,,3 G,, A,,F,, | C,4 C,2 | D,6 | C,6- | C,2 C,3 B,, | A,,>G,, F,,2 C,2 | D,4 A,,2 | %53
 B,,3 A,, G,, F,, | E,,2 C,,2 D,,2 | B,,2 C,4 | F,,6- | F,,3 G,, A,,F,, | G,,4 C,2 | %59
 F,,3 G,, A,,F,, | B,,2 A,,2 G,,2 | C,4 D,2 | B,,2 C,4 | F,,3 G,, A,,F,, | B,,G,, C,2 C,,2 | %65
 F,,6 |] %66

